resources/svg/fingerprint-o.svg

<svg width="15" height="15" viewBox="0 0 15 15" fill="none" xmlns="http://www.w3.org/2000/svg">
<path d="M12.5873 3.51271C13.2598 4.63723 13.5471 5.95313 13.4052 7.25817V8.00726C13.4043 8.79596 13.6095 9.571 14 10.2545M4.48307 6.50908C4.48307 5.71439 4.7964 4.95225 5.35414 4.39032C5.91189 3.8284 6.66834 3.51271 7.45711 3.51271C8.24587 3.51271 9.00233 3.8284 9.56007 4.39032C10.1178 4.95225 10.4311 5.71439 10.4311 6.50908V7.25817C10.4311 8.87898 10.9529 10.4561 11.9182 11.7527M7.4571 6.50908V8.00726C7.45473 10.1492 8.1034 12.2405 9.31588 14M4.48307 9.50545C4.66501 11.0709 5.11797 12.5921 5.82139 14M2.17819 12.5018C1.6765 10.8016 1.45054 9.03095 1.50903 7.25817V6.50908C1.50618 5.45575 1.77894 4.42027 2.29983 3.50698C2.82072 2.5937 3.57133 1.83487 4.47604 1.30696C5.38074 0.779051 6.40757 0.500716 7.45305 0.500001C8.49853 0.499287 9.52574 0.776217 10.4312 1.30289" stroke="black" stroke-linecap="square" stroke-linejoin="round"/>
</svg>

<svg viewBox="0 0 15 15" fill="none" xmlns="http://www.w3.org/2000/svg" fill="currentColor"><path d="M12.587 3.513a6.03 6.03 0 01.818 3.745v.75c0 .788.205 1.563.595 2.247M4.483 6.508c0-.795.313-1.557.871-2.119a2.963 2.963 0 012.103-.877c.789 0 1.545.315 2.103.877.558.562.871 1.324.871 2.12v.748c0 1.621.522 3.198 1.487 4.495m-4.46-5.244v1.498A10.542 10.542 0 009.315 14M4.483 9.505A13.559 13.559 0 005.821 14m-3.643-1.498a16.63 16.63 0 01-.669-5.244V6.51a6.028 6.028 0 01.79-3.002 5.97 5.97 0 012.177-2.2 5.914 5.914 0 015.955-.004" stroke="currentColor" stroke-linecap="square" stroke-linejoin="round"/></svg>
